svgs/paypal.svg

<?xml version="1.0" encoding="UTF-8" standalone="no"?>
<svg
   width="24"
   height="24"
   viewBox="0 0 24 24"
   version="1.1"
   id="svg4"
   sodipodi:docname="paypal.svg"
   inkscape:version="1.1.1 (3bf5ae0d25, 2021-09-20)"
   xmlns:inkscape="http://www.inkscape.org/namespaces/inkscape"
   xmlns:sodipodi="http://sodipodi.sourceforge.net/DTD/sodipodi-0.dtd"
   xmlns="http://www.w3.org/2000/svg"
   xmlns:svg="http://www.w3.org/2000/svg">
  <defs
     id="defs8" />
  <sodipodi:namedview
     id="namedview6"
     pagecolor="#ffffff"
     bordercolor="#666666"
     borderopacity="1.0"
     inkscape:pageshadow="2"
     inkscape:pageopacity="0.0"
     inkscape:pagecheckerboard="0"
     showgrid="false"
     inkscape:zoom="17.166667"
     inkscape:cx="11.912621"
     inkscape:cy="18.669903"
     inkscape:window-width="1920"
     inkscape:window-height="1009"
     inkscape:window-x="-8"
     inkscape:window-y="-8"
     inkscape:window-maximized="1"
     inkscape:current-layer="svg4" />
  <path
     d="m 20.333364,10.134167 c 0,0.446666 -0.05417,0.903333 -0.140834,1.355833 -0.705833,3.6825 -3.121666,4.955 -6.2075,4.955 h -0.476666 c -0.3775,0 -0.698334,0.278333 -0.756667,0.6575 L 12.08253,21.344167 C 12.023364,21.721667 11.70253,22 11.325863,22 H 9.0458633 C 8.7208633,22 8.47253,21.71 8.52253,21.39 l 1.155,-7.4 0.051667,-0.04667 h 1.795833 c 4.3625,0 7.090834,-2.181666 7.894167,-6.3066663 C 20.095864,8.315 20.333364,9.2 20.333364,10.134167 Z M 8.4866967,13.6775 c 0.096667,-0.688333 0.3825,-0.980833 1.1541666,-0.9825 l 1.8833337,-0.0017 c 3.811667,0 5.998333,-1.741666 6.685833,-5.3249997 C 18.876697,3.9233333 16.458364,2 13.184197,2 H 7.0641967 c -0.4308334,0 -0.7983334,0.3183333 -0.865,0.7508333 -1.92,12.3624997 -2.475,15.5058337 -2.5316667,16.4649997 -0.0175,0.301667 0.2241667,0.56 0.5291667,0.56 h 3.3241666 z"
     id="path2"
     style="stroke-width:0.833333" />
</svg>

<svg xmlns="http://www.w3.org/2000/svg" width="24" height="24" viewBox="0 0 24 24"><path d="M20.333 10.134c0 .447-.054.903-.14 1.356-.706 3.683-3.122 4.955-6.208 4.955h-.477a.769.769 0 0 0-.756.658l-.67 4.241a.77.77 0 0 1-.756.656h-2.28a.53.53 0 0 1-.523-.61l1.155-7.4.051-.047h1.796c4.363 0 7.09-2.181 7.894-6.306.677.678.914 1.563.914 2.497M8.487 13.678c.096-.689.382-.981 1.154-.983l1.883-.002c3.812 0 5.999-1.741 6.686-5.325C18.877 3.923 16.458 2 13.184 2h-6.12a.88.88 0 0 0-.865.75C4.28 15.114 3.724 18.258 3.668 19.217a.53.53 0 0 0 .529.56H7.52z" style="stroke-width:.833333"/></svg>
